X:38
T:Drops of Brandy (sj)
B:NFID.061b ("untitled slip jig")
038drops
S:JD
L:1/8
M:9/8
R:slip jig
Q:300
K:A
fed cBA eAA|fed cBA B=GB|fed cBA eAA|faf =gfg B=GB:|
Ace aec aec|Ace aec dB=G|Ace aec aec|dcd B=GB dcB:|

%%%

